/* XPM */
static char *_96267aeedd54dfbe4be14a220da0fa8uwy4faaTKWo6HpaA[] = {
/* columns rows colors chars-per-pixel */
"64 64 207 2 ",
"   c #010102",
".  c #0B0101",
"X  c #010A02",
"o  c #03030A",
"O  c #09040A",
"+  c #030A0B",
"@  c #0B0A0B",
"#  c #080800",
"$  c #17000F",
"%  c #0B110D",
"&  c #060E12",
"*  c #020418",
"=  c #1B0418",
"-  c #051314",
";  c #091616",
":  c #061518",
">  c #081618",
",  c #051A1B",
"<  c #0A1C1C",
"1  c #0F1B17",
"2  c #131618",
"3  c #210318",
"4  c #352B1C",
"5  c #0A1E20",
"6  c #0F112C",
"7  c #111F24",
"8  c #010533",
"9  c #0D0F33",
"0  c #320325",
"q  c #36022B",
"w  c #3B012C",
"e  c #360527",
"r  c #370734",
"t  c #0C2323",
"y  c #0C2A2C",
"u  c #112B2B",
"i  c #112426",
"p  c #122A30",
"a  c #1F3036",
"s  c #222C2E",
"d  c #252F31",
"f  c #400227",
"g  c #0A2C41",
"h  c #062E48",
"j  c #0F3041",
"k  c #123749",
"l  c #0D295A",
"z  c #132F5C",
"x  c #162E5A",
"c  c #16315E",
"v  c #162C48",
"b  c #232A5C",
"n  c #3F265B",
"m  c #392756",
"M  c #2F2F48",
"N  c #1D2B6B",
"B  c #2F2E64",
"V  c #372E66",
"C  c #20336D",
"Z  c #3E3061",
"A  c #43104E",
"S  c #4A1356",
"D  c #42295C",
"F  c #503062",
"G  c #552366",
"H  c #63377B",
"J  c #2A4648",
"K  c #2E4651",
"L  c #354A57",
"P  c #3C525E",
"I  c #1D4A6D",
"U  c #46514D",
"Y  c #464F50",
"T  c #4C5757",
"R  c #515555",
"E  c #4A5462",
"W  c #485A6A",
"Q  c #515F72",
"!  c #526477",
"~  c #59697E",
"^  c #F9A31B",
"/  c #5D3788",
"(  c #5E3994",
")  c #653C8C",
"_  c #693886",
"`  c #723889",
"'  c #653A94",
"]  c #6A3F95",
"[  c #6B3C9B",
"{  c #663598",
"}  c #693CA4",
"|  c #2F478F",
" . c #3564B6",
".. c #5A4A8D",
"X. c #664092",
"o. c #744898",
"O. c #66428D",
"+. c #5F6F85",
"@. c #606B8A",
"#. c #65738B",
"$. c #737E9A",
"%. c #727199",
"&. c #6A49A6",
"*. c #735EAF",
"=. c #7957BF",
"-. c #7761BE",
";. c #7862BF",
":. c #7062B3",
">. c #1F65CB",
",. c #256BD6",
"<. c #2C68DB",
"1. c #3366DC",
"2. c #3469DC",
"3. c #3769D6",
"4. c #2B76D7",
"5. c #3A5FE5",
"6. c #3966E7",
"7. c #3268E1",
"8. c #3667E0",
"9. c #3D72E5",
"0. c #2A6BE8",
"q. c #7D67CC",
"w. c #7A65C6",
"e. c #7E66D3",
"r. c #805EBB",
"t. c #8573C9",
"y. c #866CD5",
"u. c #866EDA",
"i. c #8B6CD8",
"p. c #8771D3",
"a. c #8C75D7",
"s. c #8C72DE",
"d. c #8675DA",
"f. c #9176DE",
"g. c #9277D9",
"h. c #836ECA",
"j. c #896EE4",
"k. c #866BE4",
"l. c #8C72E3",
"z. c #8C73EC",
"x. c #9177E9",
"c. c #947BF3",
"v. c #7F8D8E",
"b. c #74829E",
"n. c #408CBE",
"m. c #7983A1",
"M. c #7783A0",
"N. c #309ED0",
"B. c #2E84D9",
"V. c #31AECE",
"C. c #3BACD9",
"Z. c #39B5DC",
"A. c #3493E1",
"S. c #3DAAE5",
"D. c #3DABEA",
"F. c #39A8E8",
"G. c #3BB2E7",
"H. c #2FAAF3",
"J. c #38AAF5",
"K. c #2EBCFF",
"L. c #39B2F8",
"P. c #2FA7E6",
"I. c #439BCB",
"U. c #648DD5",
"Y. c #419DE0",
"T. c #6685E3",
"R. c #42ABE4",
"E. c #44A3ED",
"W. c #46AAE8",
"Q. c #43ACF1",
"!. c #42BAFF",
"~. c #7CC4E6",
"^. c #8F9D9E",
"/. c #808A8B",
"(. c #8F97B9",
"). c #9DAAAC",
"_. c #ADB6B8",
"`. c #9588D4",
"'. c #B0ADD3",
"]. c #9882E8",
"[. c #A49BE5",
"{. c #ADB3E0",
"}. c #ADA9EB",
"|. c #C1BDD2",
" X c #AFC3C2",
".X c #BFDACC",
"XX c #BFD6D6",
"oX c #BBE8E8",
"OX c #C5DBD9",
"+X c #CADDDD",
"@X c #C5DAD5",
"#X c #D2DCDB",
"$X c #CAE3D6",
"%X c #CAE2DE",
"&X c #C5E1D8",
"*X c #DAECDA",
"=X c #CCDAE9",
"-X c #C3C5E2",
";X c #C5E3E4",
":X c #CDE3E1",
">X c #D2E4E3",
",X c #D2E9E6",
"<X c #D5EBE9",
"1X c #DBEFEC",
"2X c #DFF0EC",
"3X c #DAEDF3",
"4X c #E2F2F2",
/* pixels */
"E E E E E E E E E E E E E E E E E E E E E E E E E E E E E E E E E E E E E E E E E E E E E E E E E E E E E E E E E E E E E E E E ",
"@.(.(.(.(.(.(.(.(.(.(.(.(.(.(.(.(.(.(.(.(.(.(.(.(.(.(.(.(.(.(.(.(.(.(.(.(.(.(.(.(.(.(.(.(.(.(.(.(.(.(.(.(.(.(.(.(.(.(.(.(.(.(.@.",
"@.(.^ ^ (.(.(.@.@.@.@.@.@.@.@.@.@.@.@.@.@.@.@.(.(.(.(.(.(.(.(.(.(.(.(.(.(.(.(.(.(.@.@.@.@.@.@.@.@.@.@.@.@.@.@.@.@.(.(.(.^ ^ (.@.",
"@.(.^ (.(.m.m.m.m.m.m.m.m.m.m.m.m.m.m.m.m.m.m.m.@.(.(.(.(.(.(.(.(.(.(.(.(.(.(.@.m.m.m.m.m.m.m.m.m.m.m.m.m.m.m.m.m.m.m.(.(.^ (.@.",
"@.(.(.(.(.m.m.m.m.m.m.m.m.m.m.m.m.m.m.m.m.m.m.m.m.m.m.m.m.m.m.m.m.m.m.m.m.m.m.m.m.m.m.m.m.m.m.m.m.m.m.m.m.m.m.m.m.m.m.(.(.(.(.@.",
"@.(.(.m.m.m.m.m.m.m.m.m.m.m.m.m.m.m.m.m.m.m.m.m.m.m.m.m.m.m.m.m.m.m.m.m.m.m.m.m.m.m.m.m.m.m.m.m.m.m.m.m.m.m.m.m.m.m.m.m.m.(.(.@.",
"@.(.(.m.m.m.m.m.m.m.m.m.m.m.m.m.m.m.m.m.m.m.m.m.m.m.m.m.m.m.m.m.m.m.m.m.m.m.m.m.m.m.m.m.m.m.m.m.m.m.m.m.m.m.m.m.m.m.m.m.m.(.(.@.",
"@.(.@.m.m.m.m.m.m.m.m.m.m.m.m.m.m.m.m.m.m.m.m.m.m.m.m.m.m.m.m.m.m.m.m.m.m.m.m.m.m.  # o o     o m.m.m.m.m.m.m.m.m.m.m.m.m.@.(.@.",
"@.(.@.m.m.m.m.m.m.m.m.m.m.m.m.m.m.m.m.m.m.m.m.m.m.m.m.m.m.m.m.m.m.m.m.m.m.m.m.m.m.            o m.m.m.m.m.m.m.m.m.m.m.m.m.@.(.@.",
"@.(.@.m.m.m.m.m.m.m.m.m.m.m.m.m.m.m.m.m.m.m.m.m.m.m.m.m.m.m.m.m.m.m.m.m.m.m.m.m.  F ' [ [ O.o #   +.m.m.m.m.m.m.m.m.m.m.m.@.(.@.",
"@.(.@.m.m.m.m.m.m.m.m.m.m.m.m.m.m.m.m.m.m.m.m.m.m.m.m.m.m.m.m.m.m.m.m.m.m.m.    H ) [ ) ) )       t m.m.m.m.m.m.m.m.m.m.m.@.(.@.",
"@.(.@.m.m.m.m.m.m.m.m.m.m.m.m.m.m.m.m.m.m.m.m.m.m.m.m.m.m.m.m.m.m.m.m.m.m.m.    } [ [ ' ' )       t m.m.m.m.m.m.m.m.m.m.m.@.(.@.",
"@.(.@.m.m.m.m.m.m.m.m.m.m.m.m.m.m.m.m.m.m.m.m.m.m.m.m.m.m.m.m.m.m.m.m.m.m.m.  o [ ' ' ' G r       t m.m.m.m.m.m.m.m.m.m.m.@.(.@.",
"@.(.@.m.m.m.m.m.m.m.m.m.m.m.m.m.m.m.m.m.m.m.m.m.m.m.m.m.m.m.m.m.m.m.m.m.m.m.  o S A A S r $     o + - - - , m.m.m.m.m.m.m.@.(.@.",
"@.(.@.m.m.m.m.m.m.m.m.m.m.m.m.m.m.m.m.m.m.m.m.m.m.m.m.m.m.m.m.m.m.m.m.m.m.m.o o w w w w 3       o           m.m.m.m.m.m.m.@.(.@.",
"@.(.@.m.m.m.m.m.m.m.m.m.m.m.m.m.m.m.m.m.m.m.m.m.m.m.m.- .                       f q q w 3   # 8 3.E.S.L.o   < u m.m.m.m.m.@.(.@.",
"@.(.@.m.m.m.m.m.m.m.m.m.m.m.m.m.m.m.m.m.m.m.m.m.W E J k h g g g g g g g g g g j m V V B b v j z 4.E.E.L.*   + < m.m.m.m.m.@.(.@.",
"@.(.@.m.m.m.m.m.m.m.m.m.m.m.m.m.m.m.m.m.m.m.m.m.  X + n.H.D.D.D.D.D.D.D.D.D.D.D.D.D.D.D.D.D.D.D.D.D.D.L.X   + > m.m.m.m.m.@.(.@.",
"@.(.@.m.m.m.m.m.m.m.m.m.m.m.m.m.m.m.M.m.m.m.m.. V.F.L.!.J.D.D.D.D.D.D.D.D.D.D.D.D.D.D.D.D.D.D.D.D.D.D.<.o   + > m.m.m.m.m.@.(.@.",
"@.(.@.m.m.m.m.m.m.m.m.m.m.m.m.m.m.m.b.m.m.m.m.. Z.Q.P.D.D.D.D.D.D.D.D.D.D.D.D.D.D.D.D.D.D.D.D.D.D.D.D.2.o   + > m.m.m.m.m.@.(.@.",
"@.(.@.m.m.m.m.m.m.m.m.m.m.m.m.m.m.m.m.m.m.  O D.D.D.D.D.D.D.D.R.R.S.W.R.S.S.S.S.F.F.F.S.S.S.S.S.R.3.3.      + < m.m.m.m.m.@.(.@.",
"E (.@.m.m.m.m.m.m.m.m.m.m.m.m.m.m.m.b.m.+ C.C.D.D.D.D.D.F.L.~.:X:X%X+X+       + 0 0 0 e =         o       + < W m.m.m.m.m.@.(.E ",
"E (.@.m.m.m.m.m.m.m.m.m.m.m.m.m.m.m.b.m.O R.F.D.D.D.W.I.J.S.~.+XOX:X1X+ % O   o w q q q 3               + - ! m.m.m.m.m.m.@.(.E ",
"E (.(.m.m.m.m.m.m.m.m.m.m.m.m.m.m.m.. * K.H.R.D.D.D.R.i . O .   4X,X X1X2X      q w w 0 =     O + + + + 5 ! m.m.m.m.m.m.m.(.(.E ",
"E (.(.@.m.m.m.m.m.m.m.m.m.m.m.m.M + W.N.Y.,.4.D.D.D.;X4 o O o   + - >X:X1X+X  o ` _ _ _ m o   + < < < t ~ m.m.m.m.m.m.m.@.(.(.E ",
"E (.(.(.m.m.m.m.m.m.m.m.m.m.m.m.K o D.D.D.>.,.G.G.H.OXs   @   o o o 4X@X:X:X    ` ' ' ' n     - m.m.m.m.m.m.m.m.m.m.m.m.(.(.(.E ",
"E (.(.(.m.m.m.m.m.m.m.m.m.m.m.m.K o D.D.D.D.E.0.oX;X,XOX%X@ @ t m.- o +X:X:X<X*Xo.' ' ' n o   > m.m.m.m.m.m.m.m.m.m.m.m.(.(.(.E ",
"E (.(.(.m.m.m.m.m.m.m.m.m.m.m.1 x | B.A.Q.C.J.l L U OX:X>X^.T + m.m.- U T +X%X3X'.o.' ) n   o : m.m.m.m.m.m.m.m.m.m.m.m.(.(.(.E ",
"E (.(.(.m.m.m.m.m.m.m.m.m.m.m.. c ,.5.,.F.G.C.    o +X,X:XXXv.  m.m.$.  + OX+X%X@X%.X._ D   o : m.$.m.m.m.m.m.m.m.m.m.m.(.(.(.E ",
"E (.(.(.m.m.m.m.m.m.m.m.m.m.m.  I F.F.E.1.2.1.      O _.+X,X>X%Xo + m.m.Q o :X+X:X`.l.f...    > m.m.m.m.m.m.m.m.m.m.m.m.(.(.(.E ",
"E (.(.(.m.m.m.m.m.m.m.m.m.m.m.  I E.D.E.1.U.T.        /.).<X:X+Xd Y a m.m.  |.|.|.`.l.a...    - m.m.m.m.m.m.m.m.m.m.m.m.(.(.(.E ",
"E (.(.(.m.m.m.m.m.m.m.m.m.m.m.  I E.D.E.1.%X+X      K + o :X%X+X:X#Xo #.m.  ] ] ] i.l.a...    - m.m.m.m.m.m.m.m.m.m.m.m.(.(.(.E ",
"E (.(.(.m.m.m.m.m.m.m.m.m.m.m.  z <.1.1.1.$X%X%X    m.m.m.O U OX:X<X>X+ o o s.s.s.&.[ { D     - m.m.m.m.m.m.m.m.m.m.m.m.(.(.(.E ",
"E (.(.(.m.m.m.m.m.m.m.m.m.m.m.  z <.1.1.1.$X%X+X2   P m.m.+ R >X<X>X@X& % o s.s.s.&.} / m     - m.m.m.m.m.m.m.m.m.m.m.m.(.(.(.E ",
"E (.(.(.m.m.m.m.m.m.m.m.m.m.m.  z <.1.1.1.$X%XXX+X<X  p m.m.+ + 4X:XXX>X=Xl.s.s.s.s.f.  # o   > m.m.m.m.m.m.m.m.m.m.m.m.(.(.(.E ",
"E (.(.(.m.m.m.m.m.m.m.m.m.m.m.  x 2.7.7.7.# % >X:X:X<X    m.m.m.+ 1 +X$X=Xa.' ( u.u.z.    o > K m.m.m.m.m.m.m.m.m.m.m.m.(.(.(.E ",
"E (.(.(.m.m.m.m.m.m.m.m.m.m.m.  z 3.6.6.6.. @ <X>X+X,X    m.m.m.o X ,X$X#Xu.( ' l.z.x.    + t m.m.m.m.m.m.m.m.m.m.m.m.m.(.(.(.E ",
"E (.(.(.m.m.m.m.m.m.m.m.m.m.m.  6 b b b b o o o @X:X:X:X:X+   o o * s.k.s.s.s.e.z.9       > L m.m.m.m.m.m.m.m.m.m.m.m.m.(.(.(.E ",
"E (.(.(.m.m.m.m.m.m., o o + +   6 b b b b   o o 2   :X:X1X@X'.p.p.*.l.s.s.s.x.p.o O O   + t m.m.m.m.m.m.m.m.m.m.m.m.m.m.(.(.(.E ",
"E (.(.@.m.m.m.m.m.m.o           6 b b b b   o O     :X:X$X.X}.l.l.j.u.d.s.s.a.].    * + > $.m.m.m.m.m.m.m.m.m.m.m.m.m.m.@.(.(.E ",
"E (.(.m.m.m.m.m.m.  _ / u.a.a.a.y.y.j.j.j.h.p.a.a.a.i.-X&X;X{.s.s.s.s.s.d.l.# o o   + t ~ m.m.m.m.m.m.m.m.m.m.m.m.m.m.m.m.(.(.E ",
"E (.@.m.m.m.m., 7 m r.=.l.s.s.s.z.j.s.s.s.a.a.s.s.s.d.[.[.[.`.s.s.s.s.s.p.Z #   # + > +.m.m.m.m.m.m.m.m.m.m.m.m.m.m.m.m.m.@.(.E ",
"E (.@.m.m.m.m.    ' g.s.s.s.s.s.s.s.s.s.s.s.s.s.s.s.s.s.s.s.s.s.s.l.k.k.a.      + , Q m.m.m.m.m.m.m.m.m.m.m.m.m.m.m.m.m.m.@.(.E ",
"@.(.@.m.m.m.m.    l.f.s.s.s.s.s.s.s.s.s.s.s.s.s.s.s.s.s.s.s.s.s.s.t.          + t @.m.m.m.m.m.m.m.m.m.m.m.m.m.m.m.m.m.m.m.@.(.@.",
"@.(.@.m.m.m.m.    x.g.l.y.w.-.-.w.q.q.q.q.-.;.;.;.;.-.-.-.;.;.;.;.:.      o + - ! m.m.m.m.m.m.m.m.m.m.m.m.m.m.m.m.m.m.m.m.@.(.@.",
"@.(.@.m.m.m.m.  o c.s.f.] @     6 b b b b o o                           o + , u m.m.m.m.m.m.m.m.m.m.m.m.m.m.m.m.m.m.m.m.m.@.(.@.",
"@.(.@.m.m.m.m.        # #       6 b b b b   o                       + ; t u #.m.m.m.m.m.m.m.m.m.m.m.m.m.m.m.m.m.m.m.m.m.m.@.(.@.",
"@.(.@.m.m.m.m.+ + +       O   o 9 C N N N #     + - > < - - - - - & , t m.m.m.m.m.m.m.m.m.m.m.m.m.m.m.m.m.m.m.m.m.m.m.m.m.@.(.@.",
"@.(.@.m.m.m.m.m.m.#.& + + o . b | 9.1.1.1.    + < Q m.m.m.m.m.m.m.m.m.m.m.m.m.m.m.m.m.m.m.m.m.m.m.m.m.m.m.m.m.m.m.m.m.m.m.@.(.@.",
"@.(.@.m.m.m.m.m.m.m.~ t t   o 1.1.7.<.2.1.    + t m.m.m.m.m.m.m.m.m.m.m.m.m.m.m.m.m.m.m.m.m.m.m.m.m.m.m.m.m.m.m.m.m.m.m.m.@.(.@.",
"@.(.@.m.m.m.m.m.m.m.m.m.m.O   1.1.1.8.9.<.    + t m.m.m.m.m.m.m.m.m.m.m.m.m.m.m.m.m.m.m.m.m.m.m.m.m.m.m.m.m.m.m.m.m.m.m.m.@.(.@.",
"@.(.@.m.m.m.m.m.m.m.m.m.m.O   1.1.1.2. .. .   + t m.m.m.m.m.m.m.m.m.m.m.m.m.m.m.m.m.m.m.m.m.m.m.m.m.m.m.m.m.m.m.m.m.m.m.m.@.(.@.",
"@.(.@.m.m.m.m.m.m.m.m.m.m.X   8 X X 8 *     + < ~ m.m.m.m.m.m.m.m.m.m.m.m.m.m.m.m.m.m.m.m.m.m.m.m.m.m.m.m.m.m.m.m.m.m.m.m.@.(.@.",
"@.(.@.m.m.m.m.m.m.m.m.m.m.+           o o + - ! m.m.m.m.m.m.m.m.m.m.m.m.m.m.m.m.m.m.m.m.m.m.m.m.m.m.m.m.m.m.m.m.m.m.m.m.m.@.(.@.",
"@.(.@.m.m.m.m.m.m.m.m.m.m.m.m.5 X + + o + < ! m.m.m.m.m.m.m.m.m.m.m.m.m.m.m.m.m.m.m.m.m.m.m.m.m.m.m.m.m.m.m.m.m.m.m.m.m.m.@.(.@.",
"@.(.@.m.m.m.m.m.m.m.m.m.m.m.m.y < i t : < u m.m.m.m.m.m.m.m.m.m.m.m.m.m.m.m.m.m.m.m.m.m.m.m.m.m.m.m.m.m.m.m.m.m.m.m.m.m.m.@.(.@.",
"@.(.@.m.m.m.m.m.m.m.m.m.m.m.m.m.m.m.m.m.$.m.m.m.m.m.m.m.m.m.m.m.m.m.m.m.m.m.m.m.m.m.m.m.m.m.m.m.m.m.m.m.m.m.m.m.m.m.m.m.m.@.(.@.",
"@.(.(.m.m.m.m.m.m.m.m.m.m.m.m.m.m.m.m.m.m.m.m.m.m.m.m.m.m.m.m.m.m.m.m.m.m.m.m.m.m.m.m.m.m.m.m.m.m.m.m.m.m.m.m.m.m.m.m.m.m.(.(.@.",
"@.(.(.m.m.m.m.m.m.m.m.m.m.m.m.m.m.m.m.m.m.m.m.m.m.m.m.m.m.m.m.m.m.m.m.m.m.m.m.m.m.m.m.m.m.m.m.m.m.m.m.m.m.m.m.m.m.m.m.m.m.(.(.@.",
"@.(.(.(.(.m.m.m.m.m.m.m.m.m.m.m.m.m.m.m.m.m.m.m.m.m.m.m.m.m.m.m.m.m.m.m.m.m.m.m.m.m.m.m.m.m.m.m.m.m.m.m.m.m.m.m.m.m.m.(.(.(.(.@.",
"@.(.^ (.(.m.m.m.m.m.m.m.m.m.m.m.m.m.m.m.m.m.m.m.@.(.(.(.(.(.(.(.(.(.(.(.(.(.(.@.m.m.m.m.m.m.m.m.m.m.m.m.m.m.m.m.m.m.m.(.(.^ (.@.",
"@.(.^ ^ (.(.(.@.@.@.@.@.@.@.@.@.@.@.@.@.@.@.@.(.(.(.(.(.(.(.(.(.(.(.(.(.(.(.(.(.(.@.@.@.@.@.@.@.@.@.@.@.@.@.@.@.@.(.(.(.^ ^ (.@.",
"@.(.(.(.(.(.(.(.(.(.(.(.(.(.(.(.(.(.(.(.(.(.(.(.(.(.(.(.(.(.(.(.(.(.(.(.(.(.(.(.(.(.(.(.(.(.(.(.(.(.(.(.(.(.(.(.(.(.(.(.(.(.(.@.",
"E E E E E E E E E E E E E E E E E E E E E E E E E E E E E E E E E E E E E E E E E E E E E E E E E E E E E E E E E E E E E E E E "
};
