/* XPM */
static char * player_xpm[] = {
"64 64 20 1",
" 	c #4A5462",
".	c #606B8A",
"+	c #8F97B9",
"@	c #F9A31B",
"#	c #9BADB7",
"$	c #7983A1",
"%	c #D1DBEF",
"&	c #253036",
"*	c #000000",
"=	c #B5CEDA",
"-	c #91C95B",
";	c #595652",
">	c #A85312",
",	c #D76900",
"'	c #354249",
")	c #65686B",
"!	c #342D2D",
"~	c #606880",
"{	c #4B546E",
"]	c #727894",
"                                                                ",
".++++++++++++++++++++++++++++++++++++++++++++++++++++++++++++++.",
".+@@+++................++++##########++++................+++@@+.",
".+@++$$$$$$$$$$$$$$$$$$$.++##########++.$$$$$$$$$$$$$$$$$$$++@+.",
".++++$$$$$$$$$$$$$$$$$$####%%%%##%%%%####$$$$$$$$$$$$$$$$$$++++.",
".++$$$$$$$$$$$$$$$$$$$$####%%%%##%%%%####$$$$$$$$$$$$$$$$$$$$++.",
".++$$$$$$$$$$$$$##$$$$#%%%%%%%%##%%%%%%%%##$$$$##$$$$$$$$$$$$++.",
".+.$$$$$$$$$$$$$##$$##%%%%%%%%%%%%%%%%%%%%%##$$##$$$$$$$$$$$$.+.",
".+.$$$$$$$$$$$$$##$$##%%%%%%%%%%%%%%%%%%%%%##$$##$$$$$$$$$$$$.+.",
".+.$$$$$$$$$$$$$####%%%%%%%%%######%%%%%%%%%%####$$$$$$$$$$$$.+.",
".+.$$$$$$$$$$$$$####%%%%%%%%%######%%%%%%%%%%####$$$$$$$$$$$$.+.",
".+.$$$$$$$$$$$$$####%%%%%&&&&&&&&&&&&&&%%%%%%####$$$$$$$$$$$$.+.",
".+.$$$$$$$$$$$$$####%%%%%&&&&&&&&&&&&&&%%%%%%####$$$$$$$$$$$$.+.",
".+.$$$$$$$$$$$####%%%%%&&&&&&************%%%%%%####$$$$$$$$$$.+.",
".+.$$$$$$$$$$$####%%%%%&&&&&&************%%%%%%####$$$$$$$$$$.+.",
".+.$$$$$$$$$$$##%%##%%&&&&&&&&&************%%##%%##$$$$$$$$$$.+.",
".+.$$$$$$$$$$$##%%##%%&&&&&&&&&************%%##%%##$$$$$$$$$$.+.",
".+.$$$$$$$$$$$##%%##%%&&&&&&&&&************%%##%%##$$$$$$$$$$.+.",
".+.$$$$$$$$$$$##%%##%%&&&&&&&&&************%%##%%##$$$$$$$$$$.+.",
".+.$$$$$$$$$$$####==&&&&&&&&&&&**************==####$$$$$$$$$$.+.",
".+.$$$$$$$$$$$####==&&&&&&&&&&&**************==####$$$$$$$$$$.+.",
" +.$$$$$$$$$$$$$##==&&*&&--&&********--******==##$$$$$$$$$$$$.+ ",
" +.$$$$$$$$$$$$$##==&&*&&--&&********--******==##$$$$$$$$$$$$.+ ",
" ++$$$$$$$$$$$$$$$##&&***--**********--******##$$$$$$$$$$$$$$++ ",
" ++.$$$$$$$$$$$$$$##&&***--**********--******##$$$$$$$$$$$$$.++ ",
" +++$$$$$$$$$$$$$$$$&&***********************$$$$$$$$$$$$$$$+++ ",
" +++$$$$$$$$$$$$$$$$&&***********************$$$$$$$$$$$$$$$+++ ",
" +++$$$$$$$$$$$$$$$$$$*********************$$$$$$$$$$$$$$$$$+++ ",
" +++$$$$$$$$$$$$$$$$$$*********************$$$$$$$$$$$$$$$$$+++ ",
" +++$$$$$$$$$$$$$$$$$$;******************;;$$$$$$$$$$$$$$$$$+++ ",
" +++$$$$$$$$$$$$$$$$$$;******************;;$$$$$$$$$$$$$$$$$+++ ",
" +++$$$$$$$$$$$$$$$$>>#;;;;;;======;;;;;;##>>$$$$$$$$$$$$$$$+++ ",
" +++$$$$$$$$$$$$$$$$>>#;;;;;;======;;;;;;##>>$$$$$$$$$$$$$$$+++ ",
" +++$$$$$$$$$$$$$$$$>>,======;;==;;======,,>>$$$$$$$$$$$$$$$+++ ",
" +++$$$$$$$$$$$$$$$$>>,======;;==;;======,,>>$$$$$$$$$$$$$$$+++ ",
" +++$$$$$$$$$$$$$$$$>>,%%##%%;;;;;;%%##%%,,>>$$$$$$$$$$$$$$$+++ ",
" +++$$$$$$$$$$$$$$$$>>,%%##%%;;;;;;%%##%%,,>>$$$$$$$$$$$$$$$+++ ",
" +++$$$$$$$$$$$$$$$$##%%%##%%;;,,;;%%##%%%%##$$$$$$$$$$$$$$$+++ ",
" +++$$$$$$$$$$$$$$&&'''&&==%%==;;==%%==&&''''&&$$$$$$$$$$$$$+++ ",
" ++.$$$$$$$$$$$$$$&&'''&&==%%==;;==%%==&&''''&&$$$$$$$$$$$$$.++ ",
" ++$$$$$$$$$$$$$$$&&'''&&==%%%%==%%%%==&&''''&&$$$$$$$$$$$$$$++ ",
" +.$$$$$$$$$$$$$$$&&'''&&==%%%%==%%%%==&&''''&&$$$$$$$$$$$$$$.+ ",
" +.$$$$$$$$$$$$$$$&&'''&&##%%%%%%%%%%##&&''''&&$$$$$$$$$$$$$$.+ ",
".+.$$$$$$$$$$$$$$$&&'''&&##%%%%%%%%%%##&&''''&&$$$$$$$$$$$$$$.+.",
".+.$$$$$$$$$$$$$$$$$&&&====####%%####====&&&&$$$$$$$$$$$$$$$$.+.",
".+.$$$$$$$$$$$$$$$$$&&&====####%%####====&&&&$$$$$$$$$$$$$$$$.+.",
".+.$$$$$$$$$$$$$$$$$$$#%%%%====##====%%%%##$$$$$$$$$$$$$$$$$$.+.",
".+.$$$$$$$$$$$$$$$$$$$#%%%%====##====%%%%##$$$$$$$$$$$$$$$$$$.+.",
".+.$$$$$$$$$$$$$$$$$$$)))%%%%%%##%%%%%%))))$$$$$$$$$$$$$$$$$$.+.",
".+.$$$$$$$$$$$$$$$$$$$)))%%%%%%##%%%%%%))))$$$$$$$$$$$$$$$$$$.+.",
".+.$$$$$$$$$$$$$$$$$!!;;;))))!!$$!!))));;;;!!$$$$$$$$$$$$$$$$.+.",
".+.$$$$$$$$$$$$$$$$$!!;;;))))!!$$!!))));;;;!!$$$$$$$$$$$$$$$$.+.",
".+.$$$$$$$$$$$$$$$$$!!;;;;;;;!!~~!!;;;;;;;;!!$$$$$$$$$$$$$$$$.+.",
".+.$$$$$$$$$$$$$$$$$!!;;;;;;;!!~~!!;;;;;;;;!!$$$$$$$$$$$$$$$$.+.",
".+.$$$$$$$$$$$$$$$~~!!;;;;;;;!!~~!!;;;;;;;;!!~~$$$$$$$$$$$$$$.+.",
".+.$$$$$$$$$$$$$$$~~!!;;;;;;;!!~~!!;;;;;;;;!!~~$$$$$$$$$$$$$$.+.",
".+.$$$$$$$$$$$$$$$~~!!!!!!!!!!!~~!!!!!!!!!!!!~~$$$$$$$$$$$$$$.+.",
".++$$$$$$$$$$$$$$$~~!!!!!!!!!!!~~!!!!!!!!!!!!~~$$$$$$$$$$$$$$++.",
".++$$$$$$$$$$$$$$$~~~~~~~~~~~~~~~~~~~~~~~~~~~~~$$$$$$$$$$$$$$++.",
".++++$$$$$$$$$$$$$~~~~~~~~~~~~~~~~~~~~~~~~~~~~~$$$$$$$$$$$$++++.",
".+@++$$$$$$$$$$$$$$$~~~~{]]]]]]]]]]]]]]{~~~~~$$$$$$$$$$$$$$++@+.",
".+@@+++.............{{{]]]]]]]]]]]]]]]]]]{{{{............+++@@+.",
".++++++++++++++++++++++++++++++++++++++++++++++++++++++++++++++.",
"                                                                "};
