/* XPM */
static char *a5d8263eb782419c9438ae5c8f81f08d4ZdQbPaYdL1CyCqQ[] = {
/* columns rows colors chars-per-pixel */
"64 64 11 1 ",
"  c #4A5462",
". c #606B8A",
"X c #8F97B9",
"o c #F9A31B",
"O c #7983A1",
"+ c #3CA370",
"@ c #8FDE5D",
"# c #3D6E70",
"$ c #323E4F",
"% c #385660",
"& c #CFFF70",
/* pixels */
"                                                                ",
".XXXXXXXXXXXXXXXXXXXXXXXXXXXXXXXXXXXXXXXXXXXXXXXXXXXXXXXXXXXXXX.",
".XooXXX................XXXXXXXXXXXXXXXXXX................XXXooX.",
".XoXXOOOOOOOOOOOOOOOOOOO.XXXXXXXXXXXXXX.OOOOOOOOOOOOOOOOOOOXXoX.",
".XXXXOOOOOOOOOOOOOOOOOOOOOOOOOOOOOOOOOOOOOOOOOOOOOOOOOOOOOOXXXX.",
".XXOOOOOOOOOOOOOOOOOOOOOOOOOOOOOOOOOOOOOOOOOOOOOOOOOOOOOOOOOOXX.",
".XXOOOOOOOOOOOOOOOOOOOOOOOOO+++++++OOOOOOOOOOOOOOOOOOOOOOOOOOXX.",
".X.OOOOOOOOOOOOOOOOOOOOOOOOO+++++++OOOOOOOOOOOOOOOOOOOOOOOOOO.X.",
".X.OOOOOOOOOOOOOOOOOOOOOOO++++++++++OOOOOOOOOOOOOOOOOOOOOOOOO.X.",
".X.OOOOOOOOOOOOOOOOOOOOOOO++++++++++OOOOOOOOOOOOOOOOOOOOOOOOO.X.",
".X.OOOOOOOOOOOOOOOOOOOOOOO+++++@@@@@OOOOOOOOOOOOOOOOOOOOOOOOO.X.",
".X.OOOOOOOOOOOOOOOOOOOOO@@##+@@@@@@@@@OOOOOOOOOOOOOOOOOOOOOOO.X.",
".X.OOOOOOOOOOOOOOOOOOOOO@@##+@@@@@@@@@OOOOOOOOOOOOOOOOOOOOOOO.X.",
".X.OOOOOOOOOOOOOOOOOOOOO+++++@@@@@@@@@OOOOOOOOOOOOOOOOOOOOOOO.X.",
".X.OOOOOOOOOOOOOOOOOOOOO+++++@@@@@@@@@OOOOOOOOOOOOOOOOOOOOOOO.X.",
".X.OOOOOOOOOOOOOOOOOOO@@++++@@@@@@@@@@@@OOOOOOOOOOOOOOOOOOOOO.X.",
".X.OOOOOOOOOOOOOOOOOOO@@++++@@@@@@@@@@@@OOOOOOOOOOOOOOOOOOOOO.X.",
".X.OOOOOOOOOOOOOOOOOOO@@##++@@@+++++@@@@OOOOOOOOOOOOOOOOOOOOO.X.",
".X.OOOOOOOOOOOOOOOOOO@++++++@@@++$$%++@@OOOOOOOOOOOOOOOOOOOOO.X.",
".X.OOOOOOOOOOOOOOOOOO@++++++@@@++$$%++@@OOOOOOOOOOOOOOOOOOOOO.X.",
".X.OOOOOOOOOOOOOOOOOOO++++@@@++$$$$%##++OOOOOOOOOOOOOOOOOOOOO.X.",
" X.OOOOOOOOOOOOOOOOOOO++++@@@++$$$$%##++OOOOOOOOOOOOOOOOOOOOO.X ",
" X.OOOOOOOOOOOOOOOOOO@##++@@@++$$$$%%%++@@OOOOOOOOOOOOOOOOOOO.X ",
" XXOOOOOOOOOOOOOOOOOO@##++@@@++$$$$%%%++@@OOOOOOOOOOOOOOOOOOOXX ",
" XX.OOOOOOOOOOOOOOOOO@##++@@+$$$$$$%%%++@@OOOOOOOOOOOOOOOOOO.XX ",
" XXXOOOOOOOOOOOOOOOOO@##++@@+$$$$$$$%%++@@O@@@@OOOOOOOOOOOOOXXX ",
" XXXOOOOOOOOOOOOOOOOO@##++@@+$$$$$$$%%++@@O@@@@OOOOOOOOOOOOOXXX ",
" XXXOOOOOOOOOOOOOOOOO@##++@@+$$$$$$$%%##++OOO@@OOOOOOOOOOOOOXXX ",
" XXXOOOOOOOOOOOOOOOOO@##++@@+$$$$$$$%%##++OOO@@OOOOOOOOOOOOOXXX ",
" XXXOOOOOOOOOOOOO++++@##++@@$$$$$$$$%%##++OOOOOOOOOOOOOOOOOOXXX ",
" XXXOOOOOOOOOOOOO++++@##++@@$$$$$$$$%%##++OOOOOOOOOOOOOOOOOOXXX ",
" XXXOOOOOOOOOOOOO++OO@##++@@$$$$$$$$%%##++OOOOOOOOOOOOOOOOOOXXX ",
" XXXOOOOOOOOOOOOOOOOO@##++++$@@@@@@$%%##++OOOOOOOOOOOOOOOOOOXXX ",
" XXXOOOOOOOOOOOOOOOOO@##++++$@@@@@@$%%##++OOOOOOOOOOOOOOOOOOXXX ",
" XXXOOOOOOOOOOOOOOOOO@@@++++$++++@@@%%##++OOOOOOOOOOOOOOOOOOXXX ",
" XXXOOOOOOOOOOOOOOOOO@@@++++$++++@@@%%##++OOOOOOOOOOOOOOOOOOXXX ",
" XXXOOOOOOOOOOOOOOOOO&@@%%+++$$++$$@@@##++OOOOOOOOOOOOOOOOOOXXX ",
" XXXOOOOOOOOOOOOOOOOO&@@%%+++$$++$$@@@##++OOOOOOOOOOOOOOOOOOXXX ",
" XXXOOOOOOOOOOOOOOOOO&@@%%$$+++$$$$@@@##++OOOOOOOOOOOOOOOOOOXXX ",
" XX.OOOOOOOOOOOOOOOOO&@@@@%%$$$$$$$@@@##++OOOOOOOOOOOOOOOOOO.XX ",
" XXOOOOOOOOOOOOOOOOOO&@@@@%%$$$$$$$@@@##++OOOOOOOOOOOOOOOOOOOXX ",
" X.OOOOOOOOOOOOOOOOOO&&&@@%%$$$$$@@&@@++++OOOOOOOOOOOOOOOOOOO.X ",
" X.OOOOOOOOOOOOOOOOOO&&&@@%%$$$$$@@&@@++++OOOOOOOOOOOOOOOOOOO.X ",
".X.OOOOOOOOOOOOOOOOOO@&&@@@@@@@@@&&&@@++OOOOOOOOOOOOOOOOOOOOO.X.",
".X.OOOOOOOOOOOOOOOOOO@&&@@@@@@@@@&&&@@++OOOOOOOOOOOOOOOOOOOOO.X.",
".X.OOOOOOOOOOOOOOOOOOO&&&&&&&&&@@@@@##++OOOOOOOOOOOOOOOOOOOOO.X.",
".X.OOOOOOOOOOOOOOOOOOO@@&&&&&@@@@@@###++OOOOOOOOOOOOOOOOOOOOO.X.",
".X.OOOOOOOOOOOOOOOOOOO@@&&&&&@@@@@@###++OOOOOOOOOOOOOOOOOOOOO.X.",
".X.OOOOOOOOOOOOOO++OOO++@@@@@@@$$%%#++++OOOOOOOOOOOOOOOOOOOOO.X.",
".X.OOOOOOOOOOOOOO++OOO++@@@@@@@$$%%#++++OOOOOOOOOOOOOOOOOOOOO.X.",
".X.OOOOOOOOOOOOOOOOOOOOO++###%%%%###++OOOOOOOOOOOOOOOOOOOOOOO.X.",
".X.OOOOOOOOOOOOOOOOOOOOO++###%%%%###++OOOOOOOOOOOOOOOOOOOOOOO.X.",
".X.OOOOOOOOOOOOOOOOOOOOO++++#######+++OOOOOOOOOOOOOOOOOOOOOOO.X.",
".X.OOOOOOOOOOOOOOOOOOOOOOO++#######+OOOOOOOOOOOOOOOOOOOOOOOOO.X.",
".X.OOOOOOOOOOOOOOOOOOOOOOO++#######+OOOOOOOOOOOOOOOOOOOOOOOOO.X.",
".X.OOOOOOOOOOOOOOOOOOOOOOO+++####+++OOOOOOOOOOOOOOOOOOOOOOOOO.X.",
".X.OOOOOOOOOOOOOOOOOOOOOOO+++####+++OOOOOOOOOOOOOOOOOOOOOOOOO.X.",
".XXOOOOOOOOOOOOOOOOOOOOOOOOO+++++++OOOOOOOOOOOOOOOOOOOOOOOOOOXX.",
".XXOOOOOOOOOOOOOOOOOOOOOOOOO+++++++OOOOOOOOOOOOOOOOOOOOOOOOOOXX.",
".XXXXOOOOOOOOOOOOOOOOOOOOOOOOOOOOOOOOOOOOOOOOOOOOOOOOOOOOOOXXXX.",
".XoXXOOOOOOOOOOOOOOOOOOO.XXXXXXXXXXXXXX.OOOOOOOOOOOOOOOOOOOXXoX.",
".XooXXX................XXXXXXXXXXXXXXXXXX................XXXooX.",
".XXXXXXXXXXXXXXXXXXXXXXXXXXXXXXXXXXXXXXXXXXXXXXXXXXXXXXXXXXXXXX.",
"                                                                "
};
