/* XPM */
static char * player_t_xpm[] = {
"64 64 17 1",
" 	c #4A5462",
".	c #606B8A",
"+	c #8F97B9",
"@	c #F9A31B",
"#	c #7983A1",
"$	c #9BADB7",
"%	c #D1DBEF",
"&	c #B5CEDA",
"*	c #595652",
"=	c #253036",
"-	c #354249",
";	c #A85312",
">	c #D76900",
",	c #342D2D",
"'	c #413D38",
")	c #65686B",
"!	c #606880",
"                                                                ",
".++++++++++++++++++++++++++++++++++++++++++++++++++++++++++++++.",
".+@@+++................++++++++++++++++++................+++@@+.",
".+@++###################.++++++++++++++.###################++@+.",
".++++#########################$$$$$$$$#####################++++.",
".++###########################$$$$$$$$#######################++.",
".++########################$$$%%%%%%%%$$$$###################++.",
".+.########################$$$%%%%%%%%$$$$###################.+.",
".+.#################$####$$%%%%%%%%%%%%%%%$$###$$############.+.",
".+.#################$##$$%%%%%%%%%%%%%%%%%%%$##$$############.+.",
".+.#################$##$$%%%%%%%%%%%%%%%%%%%$##$$############.+.",
".+.#################$$$%%%%%%%%%%%%%%%%%%%%%%$$$$############.+.",
".+.#################$$$%%%%%%%%%%%%%%%%%%%%%%$$$$############.+.",
".+.#################$$$%%%%%%%%%%%%%%%%%%%%%%$$$$############.+.",
".+.###############$$$%%%%%%%%%%%%%%%%%%%%%%%%%%$$$###########.+.",
".+.###############$$$%%%%%%%%%%%%%%%%%%%%%%%%%%$$$###########.+.",
".+.###############$$%$$%%%%%%%%%%%%%%%%%%%%%%$$%%$###########.+.",
".+.###############$$%$$%%%%%%%%%%%%%%%%%%%%%%$$%%$###########.+.",
".+.###############$$%$$%%%%%%%%%%%%%%%%%%%%%%$$%%$###########.+.",
".+.###############$$$&&%%%%%%%%%%%%%%%%%%%%%%&&$$$###########.+.",
".+.###############$$$&&%%%%%%%%%%%%%%%%%%%%%%&&$$$###########.+.",
" +.#################$&&&&&&%%%%%%%%%%%%%%%&&&&&$$############.+ ",
" +.#################$&&&&&&%%%%%%%%%%%%%%%&&&&&$$############.+ ",
" ++##################$$&&&&&&&%%%%%%%%&&&&&&&$$##############++ ",
" ++.#################$$&&&&&&&%%%%%%%%&&&&&&&$$#############.++ ",
" +++###################$$&&&&&&&&&&&&&&&&&&&$###############+++ ",
" +++#####################$$&&&&&&&&&&&&&&&$$################+++ ",
" +++#####################$$&&&&&&&&&&&&&&&$$################+++ ",
" +++#####################**$$$$$$$$$$$$$$$**################+++ ",
" +++#####################**$$$$$$$$$$$$$$$**################+++ ",
" +++###################==--$%%%%%%%%%%%%%%;;$###############+++ ",
" +++###################==--$$$%%%%%%%%$$>>>>$###############+++ ",
" +++###################==--$$$%%%%%%%%$$>>>>$###############+++ ",
" +++###################==--$%%$$$$$$$$$$>>>>$###############+++ ",
" +++###################==--$%%$$$$$$$$$$>>>>$###############+++ ",
" +++#####################==$%%%%%%%%%%$$%%%%$###############+++ ",
" +++#######################$&&%%%%%%%%==----=###############+++ ",
" +++#######################$&&%%%%%%%%==----=###############+++ ",
" +++#####################$$$%%&&&&&&&&==----=###############+++ ",
" ++.#####################$$$%%&&&&&&&&==----=###############.++ ",
" ++######################$$$%%%%%%%%%%==----=################++ ",
" +.######################$$$%%%%%%%%%%==----=################.+ ",
" +.######################*****$$$$$$$$$$====#################.+ ",
".+.####################,,'''''**%$$&&&&&%%)),################.+.",
".+.####################,,'''''**%$$&&&&&%%)),################.+.",
".+.####################,,''''''',##,,)%%%%)),################.+.",
".+.####################,,''''''',##,,)%%%%)),################.+.",
".+.####################,,''''''',!!,,,))))**,################.+.",
".+.##################!!,,''''',,!!!!!,,,,,,,!!!##############.+.",
".+.##################!!,,''''',,!!!!!,,,,,,,!!!##############.+.",
".+.##################!!!!,,,,,!!!!!!!!!!!!!!!!!##############.+.",
".+.##################!!!!,,,,,!!!!!!!!!!!!!!!!!##############.+.",
".+.##################!!!!!!!!!!!!!!!!!!!!!!!!!!##############.+.",
".+.####################!!!!!!!!!!!!!!!!!!!!!!################.+.",
".+.####################!!!!!!!!!!!!!!!!!!!!!!################.+.",
".+.##########################################################.+.",
".+.##########################################################.+.",
".++##########################################################++.",
".++##########################################################++.",
".++++######################################################++++.",
".+@++###################.++++++++++++++.###################++@+.",
".+@@+++................++++++++++++++++++................+++@@+.",
".++++++++++++++++++++++++++++++++++++++++++++++++++++++++++++++.",
"                                                                "};
